src/assets/duotone/CalendarAdd.svg

<svg width="24" height="24" viewBox="0 0 24 24"  xmlns="http://www.w3.org/2000/svg">
<path d="M16.7502 3.56V2C16.7502 1.59 16.4102 1.25 16.0002 1.25C15.5902 1.25 15.2502 1.59 15.2502 2V3.5H8.75024V2C8.75024 1.59 8.41024 1.25 8.00024 1.25C7.59024 1.25 7.25024 1.59 7.25024 2V3.56C4.55024 3.81 3.24023 5.42 3.04023 7.81C3.02023 8.1 3.26023 8.34 3.54023 8.34H20.4602C20.7502 8.34 20.9902 8.09 20.9602 7.81C20.7602 5.42 19.4502 3.81 16.7502 3.56Z" />
<path opacity="0.4" d="M21 10.8401V12.5801C21 13.1901 20.46 13.6601 19.86 13.5601C19.58 13.5201 19.29 13.4901 19 13.4901C15.97 13.4901 13.5 15.9601 13.5 18.9901C13.5 19.4501 13.68 20.0901 13.87 20.6701C14.09 21.3201 13.61 21.9901 12.92 21.9901H8C4.5 21.9901 3 19.9901 3 16.9901V10.8301C3 10.2801 3.45 9.83008 4 9.83008H20C20.55 9.84008 21 10.2901 21 10.8401Z" />
<path d="M8.5 14.9999C8.24 14.9999 7.98 14.8899 7.79 14.7099C7.61 14.5199 7.5 14.2599 7.5 13.9999C7.5 13.7399 7.61 13.4799 7.79 13.2899C8.02 13.0599 8.37 12.9499 8.7 13.0199C8.76 13.0299 8.82 13.0499 8.88 13.0799C8.94 13.0999 9 13.1299 9.06 13.1699C9.11 13.2099 9.16 13.2499 9.21 13.2899C9.39 13.4799 9.5 13.7399 9.5 13.9999C9.5 14.2599 9.39 14.5199 9.21 14.7099C9.16 14.7499 9.11 14.7899 9.06 14.8299C9 14.8699 8.94 14.8999 8.88 14.9199C8.82 14.9499 8.76 14.9699 8.7 14.9799C8.63 14.9899 8.56 14.9999 8.5 14.9999Z" />
<path d="M12 15.0002C11.74 15.0002 11.48 14.8902 11.29 14.7102C11.11 14.5202 11 14.2602 11 14.0002C11 13.7402 11.11 13.4802 11.29 13.2902C11.67 12.9202 12.34 12.9202 12.71 13.2902C12.89 13.4802 13 13.7402 13 14.0002C13 14.2602 12.89 14.5202 12.71 14.7102C12.52 14.8902 12.26 15.0002 12 15.0002Z" />
<path d="M8.5 18.4999C8.24 18.4999 7.98 18.3899 7.79 18.2099C7.61 18.0199 7.5 17.7599 7.5 17.4999C7.5 17.2399 7.61 16.9799 7.79 16.7899C7.89 16.6999 7.99 16.6299 8.12 16.5799C8.49 16.4199 8.93 16.5099 9.21 16.7899C9.39 16.9799 9.5 17.2399 9.5 17.4999C9.5 17.7599 9.39 18.0199 9.21 18.2099C9.02 18.3899 8.76 18.4999 8.5 18.4999Z" />
<path d="M21.83 16.17C20.27 14.61 17.73 14.61 16.17 16.17C14.61 17.73 14.61 20.27 16.17 21.83C17.73 23.39 20.27 23.39 21.83 21.83C23.39 20.27 23.39 17.73 21.83 16.17ZM21.07 19.56C20.94 19.7 20.75 19.78 20.54 19.78H19.8V20.56C19.8 20.77 19.72 20.95 19.58 21.09C19.44 21.23 19.26 21.31 19.05 21.31C18.64 21.31 18.3 20.97 18.3 20.56V19.78H17.55C17.14 19.78 16.8 19.45 16.8 19.03C16.8 18.62 17.14 18.28 17.55 18.28H18.3V17.57C18.3 17.16 18.63 16.82 19.05 16.82C19.46 16.82 19.8 17.16 19.8 17.57V18.28H20.54C20.96 18.28 21.29 18.62 21.29 19.03C21.29 19.24 21.21 19.43 21.07 19.56Z" />
</svg>

<?xml version="1.0" encoding="UTF-8"?>
<svg width="24" height="24" viewBox="0 0 24 24" xmlns="http://www.w3.org/2000/svg">
 <path d="m16.75 3.56v-1.56c0-0.41-0.34-0.75-0.75-0.75s-0.75 0.34-0.75 0.75v1.5h-6.5v-1.5c0-0.41-0.34-0.75-0.75-0.75s-0.75 0.34-0.75 0.75v1.56c-2.7 0.25-4.01 1.86-4.21 4.25-0.02 0.29 0.22 0.53 0.5 0.53h16.92c0.29 0 0.53-0.25 0.5-0.53-0.2-2.39-1.51-4-4.21-4.25z"/>
 <path d="m21 10.84v1.74c0 0.61-0.54 1.08-1.14 0.98-0.28-0.04-0.57-0.07-0.86-0.07-3.03 0-5.5 2.47-5.5 5.5 0 0.46 0.18 1.1 0.37 1.68 0.22 0.65-0.26 1.32-0.95 1.32h-4.92c-3.5 0-5-2-5-5v-6.16c0-0.55 0.45-1 1-1h16c0.55 0.01 1 0.46002 1 1.01z" opacity=".4"/>
 <path d="m8.5 15c-0.26 0-0.52-0.11-0.71-0.29-0.18-0.19-0.29-0.45-0.29-0.71s0.11-0.52 0.29-0.71c0.23-0.23 0.58-0.34 0.91-0.27 0.06 0.01 0.12 0.03 0.18 0.06 0.06 0.02 0.12 0.05 0.18 0.09l0.15 0.12c0.18 0.19 0.29 0.45 0.29 0.71s-0.11 0.52-0.29 0.71l-0.15 0.12c-0.06 0.04-0.12 0.07-0.18 0.09-0.06 0.03-0.12 0.05-0.18 0.06-0.07 0.01-0.14 0.02-0.2 0.02z"/>
 <path d="m12 15c-0.26 0-0.52-0.11-0.71-0.29-0.18-0.19-0.29-0.45-0.29-0.71s0.11-0.52 0.29-0.71c0.38-0.37 1.05-0.37 1.42 0 0.18 0.19 0.29 0.45 0.29 0.71s-0.11 0.52-0.29 0.71c-0.19 0.18-0.45 0.29-0.71 0.29z"/>
 <path d="m8.5 18.5c-0.26 0-0.52-0.11-0.71-0.29-0.18-0.19-0.29-0.45-0.29-0.71s0.11-0.52 0.29-0.71c0.1-0.09 0.2-0.16 0.33-0.21 0.37-0.16 0.81-0.07 1.09 0.21 0.18 0.19 0.29 0.45 0.29 0.71s-0.11 0.52-0.29 0.71c-0.19 0.18-0.45 0.29-0.71 0.29z"/>
 <path d="m21.83 16.17c-1.56-1.56-4.1-1.56-5.66 0s-1.56 4.1 0 5.66 4.1 1.56 5.66 0 1.56-4.1 0-5.66zm-0.76 3.39c-0.13 0.14-0.32 0.22-0.53 0.22h-0.74v0.78c0 0.21-0.08 0.39-0.22 0.53s-0.32 0.22-0.53 0.22c-0.41 0-0.75-0.34-0.75-0.75v-0.78h-0.75c-0.41 0-0.75-0.33-0.75-0.75 0-0.41 0.34-0.75 0.75-0.75h0.75v-0.71c0-0.41 0.33-0.75 0.75-0.75 0.41 0 0.75 0.34 0.75 0.75v0.71h0.74c0.42 0 0.75 0.34 0.75 0.75 0 0.21-0.08 0.4-0.22 0.53z"/>
</svg>
